packages/calcite-ui-icons/icons/mooc-16.svg

<?xml version="1.0" encoding="UTF-8"?><svg id="icons" xmlns="http://www.w3.org/2000/svg" viewBox="0 0 16 16"><defs><style>.cls-1{fill:none;}</style></defs><rect class="cls-1" width="16" height="16"/><path d="M9,13.0918v-1.0918h-1v1.0918c-.58124.2066-.991.75604-.991,1.4082,0,.82843.66257,1.5,1.491,1.5s1.491-.67157,1.491-1.5c0-.65216-.40976-1.2016-.991-1.4082ZM9,15h-1v-1h1v1ZM14.5,8c-.65216,0-1.2016.41876-1.4082,1h-1.0918v1h1.0918c.2066.58124.75604,1,1.4082,1,.82843,0,1.5-.67157,1.5-1.5s-.67157-1.5-1.5-1.5ZM15,10h-1v-1h1v1ZM3,9.5c0-.82843-.67157-1.5-1.5-1.5s-1.5.67157-1.5,1.5.67157,1.5,1.5,1.5,1.5-.67157,1.5-1.5ZM1,9h1v1h-1v-1ZM14.5,13c-.23114,0-.44745.05658-.64301.14996l-1.50348-1.50348-.70703.70703,1.50348,1.50348c-.09338.19556-.14996.41187-.14996.64301,0,.82843.67157,1.5,1.5,1.5s1.5-.67157,1.5-1.5-.67157-1.5-1.5-1.5ZM15,15h-1v-1h1v1ZM2.5,4c.23114,0,.44745-.05658.64301-.14996l1.00348,1.00348.70703-.70703-1.00348-1.00348c.09338-.19556.14996-.41187.14996-.64301,0-.82843-.67157-1.5-1.5-1.5s-1.5.67157-1.5,1.5.67157,1.5,1.5,1.5ZM2,2h1v1h-1v-1ZM4.64648,11.64648l-1.50348,1.50348c-.19556-.09338-.41187-.14996-.64301-.14996-.82843,0-1.5.67157-1.5,1.5s.67157,1.5,1.5,1.5,1.5-.67157,1.5-1.5c0-.23114-.05658-.44745-.14996-.64301l1.50348-1.50348-.70703-.70703ZM3,15h-1v-1h1v1ZM9,4.23151v-1.3233c.58124-.2066,1-.75604,1-1.4082,0-.82843-.67157-1.5-1.5-1.5s-1.5.67157-1.5,1.5c0,.65216.41876,1.2016,1,1.4082v1.32324l-4.56836,2.28418.56836.26392v3.22046h1v-2.7561l1,.46436v1.66382c0,.23926,0,.73828,2.32715,1.59668l.16992.06348.1709-.06152c2.33203-.83301,2.33203-1.35059,2.33203-1.59863v-1.64783l2.55957-1.21252-4.55957-2.28021ZM8,1h1v1h-1v-1ZM10,9.24414c-.20605.16895-.8418.47559-1.49707.72266-.65527-.25391-1.29004-.56348-1.50293-.73145v-1.06274l1.54199.71606,1.45801-.69067v1.04614ZM8.53809,7.86328l-2.96973-1.37891,2.93164-1.46582,2.94043,1.46973-2.90234,1.375ZM12.85352,4.85352l1.00348-1.00348c.19556.09338.41187.14996.64301.14996.82843,0,1.5-.67157,1.5-1.5s-.67157-1.5-1.5-1.5-1.5.67157-1.5,1.5c0,.23114.05658.44745.14996.64301l-1.00348,1.00348.70703.70703ZM14,2h1v1h-1v-1Z"/></svg>

<svg xmlns="http://www.w3.org/2000/svg" viewBox="0 0 16 16"><path fill="none" d="M0 0h16v16H0z"/><path d="M9 13.092V12H8v1.092a1.488 1.488 0 0 0-.991 1.408c0 .828.663 1.5 1.491 1.5s1.491-.672 1.491-1.5c0-.652-.41-1.202-.991-1.408zM9 15H8v-1h1v1zm5.5-7c-.652 0-1.202.419-1.408 1H12v1h1.092A1.496 1.496 0 0 0 16 9.5 1.5 1.5 0 0 0 14.5 8zm.5 2h-1V9h1v1zM3 9.5a1.5 1.5 0 1 0-3 0 1.5 1.5 0 0 0 3 0zM1 9h1v1H1V9zm13.5 4c-.231 0-.447.057-.643.15l-1.503-1.504-.708.708 1.504 1.503c-.093.196-.15.412-.15.643a1.5 1.5 0 1 0 1.5-1.5zm.5 2h-1v-1h1v1zM2.5 4c.231 0 .447-.057.643-.15l1.003 1.004.708-.708L3.85 3.143c.093-.196.15-.412.15-.643A1.5 1.5 0 1 0 2.5 4zM2 2h1v1H2V2zm2.646 9.646L3.143 13.15A1.486 1.486 0 0 0 2.5 13 1.5 1.5 0 1 0 4 14.5c0-.231-.057-.447-.15-.643l1.504-1.503-.708-.708zM3 15H2v-1h1v1zM9 4.232V2.908A1.496 1.496 0 0 0 8.5 0 1.496 1.496 0 0 0 8 2.908v1.323L3.432 6.516 4 6.78V10h1V7.244l1 .464v1.664c0 .24 0 .738 2.327 1.597l.17.063.171-.061C11 10.138 11 9.62 11 9.372V7.724l2.56-1.212L9 4.232zM8 1h1v1H8V1zm2 8.244c-.206.17-.842.476-1.497.723-.655-.254-1.29-.564-1.503-.732V8.173l1.542.716L10 8.198v1.046zm-1.462-1.38l-2.97-1.38L8.5 5.02l2.94 1.47-2.902 1.374zm4.316-3.01l1.003-1.004c.196.093.412.15.643.15A1.5 1.5 0 1 0 13 2.5c0 .231.057.447.15.643l-1.004 1.003.708.708zM14 2h1v1h-1V2z"/></svg>
